X:774
T:Up With Aily
C:Henry Playford 1703
N:This is the original tune.  Cecil Sharp used "The Hare's Maggot" which is in 3:2.
S:Colin Hume's website,  colinhume.com  - chords can also be printed below the stave.
Q:3/8=120
M:9/8
L:1/8
K:D
|: "D"D2d "/"A2F "/"A2F | "D"D2d "/"A2F "A7"GFE | "D"D2d "/"A2F "G"GAB | "C"=c3 "/"GE=C "/"GEC :|
|: "D"d>ef f>ef f>ef | "D"d>ef fga "A7"ecA | "D"d>ef f>ef f>ef | "C"e3 E2F GFE :|

